X:15989
T:Steeplechase
M:C
L:1/8
K:C Major
B|c2CC EGG2|Add^c dfed|cBcG AdcA|G2EC DCA,2|!
G,CC2 EGG2|Add^c dfed|cBcG AdcA|GEDF ECC:|!
B|c2ec gcea|gedf eGAB|c2ec gcea|gedc BGAB|!
cdec Gcea|gedc ABcd|egg2 eaa2|[1 gedf eGA:|[2 gedf ecc|]!


